book-variant.svg

<svg fill="currentColor" viewBox="0 0 24 24"><path d="M6 4h5v8l-2.5-1.5L6 12M18 2H6a2 2 0 0 0-2 2v16a2 2 0 0 0 2 2h12a2 2 0 0 0 2-2V4a2 2 0 0 0-2-2"/></svg>

<svg  viewBox="0 0 24 24" fill="currentColor"><path  d="M6,4H11V12L8.5,10.5L6,12M18,2H6A2,2 0 0,0 4,4V20A2,2 0 0,0 6,22H18A2,2 0 0,0 20,20V4A2,2 0 0,0 18,2Z"/></svg>
